icons/dia.svg

<!--
  - The MIT License (MIT)
  -
  - Copyright (c) 2015-2024 Elior "Mallowigi" Boukhobza
  -
  - Permission is hereby granted, free of charge, to any person obtaining a copy
  - of this software and associated documentation files (the "Software"), to deal
  - in the Software without restriction, including without limitation the rights
  - to use, copy, modify, merge, publish, distribute, sublicense, and/or sell
  - copies of the Software, and to permit persons to whom the Software is
  - furnished to do so, subject to the following conditions:
  -
  - The above copyright notice and this permission notice shall be included in all
  - copies or substantial portions of the Software.
  -
  - THE SOFTWARE IS PROVIDED "AS IS", WITHOUT WARRANTY OF ANY KIND, EXPRESS OR
  - IMPLIED, INCLUDING BUT NOT LIMITED TO THE WARRANTIES OF MERCHANTABILITY,
  - FITNESS FOR A PARTICULAR PURPOSE AND NONINFRINGEMENT. IN NO EVENT SHALL THE
  - AUTHORS OR COPYRIGHT HOLDERS BE LIABLE FOR ANY CLAIM, DAMAGES OR OTHER
  - LIABILITY, WHETHER IN AN ACTION OF CONTRACT, TORT OR OTHERWISE, ARISING FROM,
  - OUT OF OR IN CONNECTION WITH THE SOFTWARE OR THE USE OR OTHER DEALINGS IN THE
  - SOFTWARE.
  -
  -->

<svg version="1.1" xmlns="http://www.w3.org/2000/svg" viewBox="0 0 512 512" width="16px" height="16px">
  <path fill="#DCE775" data-iconColor="Dia"
        d="M269.6423645,130.2975159L163.7879333,340.6614075l216.7511292,0.4095764L269.6423645,130.2975159z M268.0151062,228.1097717l37.0836487,70.4201965l-71.7374725-0.2988892L268.0151062,228.1097717z M163.7879333,136.4467621H50.9429626V12.266367h112.8449707V136.4467621z M163.6274261,388.2149658l-55.49263,111.5186768L50.9097557,388.0710449L73.6138,388.1817322V147.7821808h67.5032959v240.432785H163.6274261z M268.142395,442.746582l-122.1566772,0.0055542l28.2001953-56.6715698h93.7019043c126.9749756-6.0341187,188.6593628-71.0081787,187.232605-136.0275879c-1.4078979-64.1600952-64.2697754-128.3643799-186.5352173-136.0224609h-93.461853v-56.677124h93.4729004c162.3065796,7.123291,243.6539917,99.9025269,243.3952026,192.699585C511.7339478,342.3920288,430.6738892,434.7487793,268.142395,442.746582z M69.3816986,442.7548828L0,442.7576599v-56.6770935l40.2890282-0.0934143L69.3816986,442.7548828z M39.6075439,114.0305252H0V57.3534355h39.6075439V114.0305252z"/>
</svg>

<svg xmlns="http://www.w3.org/2000/svg" viewBox="0 0 512 512"><path fill="#dce775" d="M269.642 130.298 163.788 340.66l216.751.41zm-1.627 97.812 37.084 70.42-71.738-.299zm-104.227-91.663H50.943V12.267h112.845zm-.16 251.768-55.493 111.519L50.91 388.07l22.704.11V147.783h67.503v240.433zm104.514 54.532-122.156.005 28.2-56.671h93.702c126.975-6.035 188.66-71.009 187.232-136.028-1.407-64.16-64.27-128.364-186.535-136.022h-93.462V57.353h93.473c162.307 7.124 243.654 99.903 243.395 192.7-.257 92.339-81.317 184.696-243.849 192.694m-198.76.008L0 442.758V386.08l40.289-.094zM39.608 114.03H0V57.353h39.608z" data-iconColor="Dia"/></svg>
